X:1
T: Kissed Yestreen
C:
R:Jig
Q:180
K:Am
M:6/8
L:1/16
E2|:A2B2A2 A2B2d2|e^fg2B2 A4c2|B2A2B2 G2A2G2|B2A2B2 G2A2B2|
c2B2c2 d2c2d2|e2d2e2 a4g2|e2d2B2 A2B2d2|e4A2A4E2:|
|:a4A2 A2B2A2|a4A2 A4^f2|g4G2 G2A2G2|B2A2B2 G2A2B2|
c2B2c2 d2c2d2|e2d2e2 a4g2|e2d2B2 A2B2d2|e4A2A4^g2:|
